X: 33920
T: Red Star Line, The
R: reel
M: 4/4
K: Gmajor
g2fg edBA|G2BG dGBG|Bded BdgB|~A3B cdef|
~g3f edBA|GABG d~G3|Bded BdgB|1 ~A3B G2Bd:|2 ~A3B ~G3F||
|:~E3F G~E3|g2fg edBd|~E3F GABG|~A3G A2BG|
~E3F G~E3|g2fg edBA|G2BG dGBG|1 ~A3B ~G3F:|2 ~A3B G4||

